www/assets/icons/move_down.svg

<svg xmlns="http://www.w3.org/2000/svg" width="24" height="24" viewBox="0 0 24 24" fill='currentColor'><path d="M3.5 10.5c0 2.45 1.76 4.47 4.08 4.91l-1.49-1.49L7.5 12.5l4 4.01-4 3.99-1.41-1.41 1.58-1.58v-.06A7.007 7.007 0 0 1 1.5 10.5c0-3.87 3.13-7 7-7h3v2h-3c-2.76 0-5 2.24-5 5m19 0v-7h-9v7zm-2-2h-5v-3h5zm2 4h-9v7h9z"/></svg>

<svg width="24" height="24" viewBox="0 0 24 24" xmlns="http://www.w3.org/2000/svg" fill='currentColor'><path d="M3.5 10.5C3.5 12.95 5.26 14.97 7.58 15.41L6.09 13.92L7.5 12.5L11.5 16.51L7.5 20.5L6.09 19.09L7.67 17.51V17.45C4.2 17.04 1.5 14.08 1.5 10.5C1.5 6.63 4.63 3.5 8.5 3.5H11.5V5.5H8.5C5.74 5.5 3.5 7.74 3.5 10.5Z"/><path d="M22.5 10.5V3.5H13.5V10.5H22.5ZM20.5 8.5H15.5V5.5H20.5V8.5Z"/><path d="M22.5 12.5H13.5V19.5H22.5V12.5Z"/></svg>
